X: 35228
T: Rosbeg
R: reel
M: 4/4
K: Gmajor
M:12/8
L: 1/8
K:G
G2GF DGFD E/F/G AB|EDE Bz Az G2 FDF|
G2GF DGFD E/F/G AB|cED Fz Gz A2 BAG:|
|:M:1
/8
L: 1/8
AB cE2A GB2G|cd ce2G xG2A|
BA Bd2G DA2F|1 de fd2A BD2E:|2 ED DD6D||

